public/svg/layer.svg

<svg xmlns="http://www.w3.org/2000/svg" width="35" height="35" viewBox="0 0 35 35" fill="none">
<path d="M16.5659 23.7802C17.1127 24.2149 17.8871 24.2147 18.4336 23.7796L28.2333 15.9782L29.1432 15.2577C29.9005 14.658 29.9018 13.5091 29.1457 12.9078L18.4337 4.38839C17.8871 3.9537 17.1129 3.9537 16.5663 4.38839L5.84983 12.9114C5.09515 13.5116 5.09466 14.6577 5.84883 15.2585L6.75208 15.9782L16.5659 23.7802Z" fill="#1B5BF7"/>
<path opacity="0.3" fill-rule="evenodd" clip-rule="evenodd" d="M18.4183 27.5681C17.8718 28.0028 17.0977 28.0028 16.5512 27.5683L7.78446 20.5987C7.20807 20.1405 6.36832 20.2418 5.91747 20.824C5.46875 21.4034 5.57731 22.2374 6.15943 22.6826L16.5859 30.6573C17.1237 31.0686 17.8704 31.0687 18.4083 30.6575L28.83 22.6894C29.4171 22.2406 29.5263 21.3995 29.0733 20.8156C28.6187 20.2297 27.7731 20.1281 27.1927 20.5897L18.4183 27.5681Z" fill="#1B5BF7"/>
</svg>

<svg xmlns="http://www.w3.org/2000/svg" width="35" height="35" fill="#1b5bf7" xmlns:v="https://vecta.io/nano"><path d="M16.566 23.78a1.5 1.5 0 0 0 1.868-.001l9.8-7.801.91-.72a1.5 1.5 0 0 0 .003-2.35L18.434 4.388a1.5 1.5 0 0 0-1.867 0L5.85 12.911a1.5 1.5 0 0 0-.001 2.347l.903.72 9.814 7.802z"/><path opacity=".3" fill-rule="evenodd" d="M18.418 27.568a1.5 1.5 0 0 1-1.867 0l-8.767-6.97a1.32 1.32 0 0 0-1.625 2.084l10.426 7.975a1.5 1.5 0 0 0 1.822 0l10.422-7.968a1.33 1.33 0 1 0-1.637-2.1l-8.774 6.978z"/></svg>
